images/Mobile-tool-icons.svg

<svg width="384" height="210" viewBox="0 0 384 210" fill="none" xmlns="http://www.w3.org/2000/svg">
<path d="M357.25 172.125H348.25C343.901 172.125 340.375 168.599 340.375 164.25C340.375 159.901 343.901 156.375 348.25 156.375H357.25V172.125Z" fill="#E64A19"/>
<path d="M356.125 187.875H348.25C343.901 187.875 340.375 184.349 340.375 180C340.375 175.651 343.901 172.125 348.25 172.125H356.125V187.875Z" fill="#7C4DFF"/>
<path d="M348.25 203.625C343.901 203.625 340.375 200.099 340.375 195.75C340.375 191.401 343.901 187.875 348.25 187.875H356.125V195.75C356.125 200.099 352.599 203.625 348.25 203.625Z" fill="#66BB6A"/>
<path d="M364 172.125H356.125V156.375H364C368.349 156.375 371.875 159.901 371.875 164.25C371.875 168.599 368.349 172.125 364 172.125Z" fill="#FF7043"/>
<path d="M364 187.875C368.349 187.875 371.875 184.349 371.875 180C371.875 175.651 368.349 172.125 364 172.125C359.651 172.125 356.125 175.651 356.125 180C356.125 184.349 359.651 187.875 364 187.875Z" fill="#29B6F6"/>
<path d="M46.125 8.625H7.875L11.25 46.875L27 51.375L42.75 46.875L46.125 8.625Z" fill="#0277BD"/>
<path d="M27 12V47.8875L39.6 44.2875L42.4125 12H27Z" fill="#039BE5"/>
<path d="M37.2375 17.625H27V22.125H32.5125L32.175 26.625H27V31.125H31.95L31.6125 36.1875L27 37.7625V42.4875L35.8875 39.5625L36.675 26.625L37.2375 17.625Z" fill="white"/>
<path d="M27 17.625V22.125H16.9875L16.65 17.625H27ZM21.825 26.625L22.05 31.125H27V26.625H21.825ZM22.275 33.375H17.775L18.1125 39.5625L27 42.4875V37.7625L22.3875 36.1875L22.275 33.375Z" fill="#EEEEEE"/>
<path d="M115.868 81.2525C115.842 81.0151 115.631 80.9094 115.473 80.9094C115.316 80.9094 111.862 80.6461 111.862 80.6461C111.862 80.6461 109.463 78.2476 109.173 78.0102C108.91 77.747 108.408 77.8258 108.198 77.8786C108.172 77.8786 107.67 78.0373 106.853 78.3005C106.037 75.9538 104.639 73.8185 102.135 73.8185H101.898C101.21 72.9219 100.315 72.5 99.5769 72.5C93.7775 72.5 90.983 79.7495 90.1134 83.4406C87.8465 84.1528 86.2378 84.6264 86.0533 84.7063C84.7876 85.1011 84.7618 85.1281 84.6031 86.3139C84.4715 87.2105 81.1764 112.702 81.1764 112.702L106.826 117.5L120.746 114.495C120.772 114.442 115.895 81.4899 115.868 81.2525ZM105.429 78.6684C104.797 78.8529 104.032 79.0903 103.268 79.3535V78.8799C103.268 77.4567 103.084 76.2969 102.74 75.3732C104.058 75.5319 104.876 76.982 105.429 78.6684ZM101.132 75.6635C101.475 76.5601 101.712 77.8257 101.712 79.565V79.8282C100.289 80.276 98.786 80.7249 97.2301 81.2255C98.0998 77.9045 99.7614 76.2699 101.132 75.6635ZM99.4441 74.0289C99.7074 74.0289 99.9718 74.1346 100.182 74.2921C98.3101 75.1617 96.3335 77.3499 95.5156 81.779C94.277 82.1739 93.0901 82.517 91.9573 82.886C92.9068 79.5121 95.2794 74.0289 99.4441 74.0289Z" fill="#7CB342"/>
<path d="M115.473 80.8565C115.315 80.8565 111.862 80.5932 111.862 80.5932C111.862 80.5932 109.463 78.1947 109.173 77.9573C109.066 77.8516 108.935 77.7987 108.83 77.7987L106.905 117.5L120.825 114.495C120.825 114.495 115.948 81.4898 115.921 81.2525C115.815 81.0151 115.631 80.9093 115.473 80.8565Z" fill="#558B2F"/>
<path d="M101.891 88.9171L100.232 93.9222C100.232 93.9222 98.7275 93.1178 96.9387 93.1178C94.268 93.1178 94.1386 94.8031 94.1386 95.2182C94.1386 97.4997 100.102 98.3817 100.102 103.749C100.102 107.976 97.4315 110.698 93.827 110.698C89.471 110.698 87.293 108.002 87.293 108.002L88.4596 104.164C88.4596 104.164 90.7411 106.135 92.6603 106.135C93.9305 106.135 94.4491 105.15 94.4491 104.424C94.4491 101.442 89.5745 101.312 89.5745 96.386C89.5745 92.2628 92.531 88.2702 98.5205 88.2702C100.749 88.2432 101.891 88.9171 101.891 88.9171Z" fill="white"/>
<path d="M176.75 11.25C176.75 8.76487 178.765 6.75 181.25 6.75H212.75C215.235 6.75 217.25 8.76487 217.25 11.25V42.75C217.25 45.2351 215.235 47.25 212.75 47.25H181.25C178.765 47.25 176.75 45.2351 176.75 42.75V11.25Z" fill="#03A9F4"/>
<path d="M192.518 21.5708H190.266V26.5591H192.485C193.101 26.5591 193.577 26.3577 193.914 25.9549C194.252 25.5522 194.419 24.9661 194.419 24.1966C194.419 23.3978 194.247 22.7633 193.903 22.2908C193.559 21.8183 193.096 21.5787 192.518 21.5708Z" fill="#020F16"/>
<path d="M180.125 10.125V43.875H213.875V10.125H180.125ZM196.286 27.8876C195.356 28.7966 194.067 29.25 192.419 29.25H190.266V34.875H187.036V18.8786H192.485C194.067 18.8786 195.329 19.3703 196.27 20.3513C197.21 21.3323 197.682 22.6069 197.682 24.174C197.682 25.7411 197.216 26.9786 196.286 27.8876ZM206.767 34.128C205.97 34.7726 204.921 35.0944 203.625 35.0944C202.753 35.0944 201.984 34.9245 201.318 34.5836C200.652 34.2427 200.129 33.768 199.752 33.1605C199.375 32.553 199.186 31.8971 199.186 31.194H202.141C202.157 31.7351 202.282 32.1424 202.52 32.4135C202.759 32.6846 203.148 32.8196 203.69 32.8196C204.525 32.8196 204.942 32.4427 204.942 31.6879C204.942 31.4246 204.816 31.1805 204.563 30.9577C204.31 30.735 203.75 30.4335 202.878 30.0521C201.597 29.5324 200.716 28.9946 200.235 28.4366C199.755 27.8786 199.516 27.1879 199.516 26.3599C199.516 25.3192 199.891 24.4609 200.642 23.7836C201.392 23.1064 202.388 22.7678 203.624 22.7678C204.927 22.7678 205.971 23.1052 206.755 23.778C207.539 24.4507 207.93 25.3564 207.93 26.4915H204.821C204.821 25.5251 204.419 25.0414 203.613 25.0414C203.283 25.0414 203.013 25.1437 202.799 25.3485C202.586 25.5532 202.481 25.8401 202.481 26.2058C202.481 26.469 202.598 26.7019 202.833 26.9032C203.068 27.1046 203.619 27.3926 204.492 27.7661C205.76 28.2352 206.655 28.7572 207.179 29.3321C207.703 29.907 207.964 30.6529 207.964 31.5675C207.964 32.6306 207.565 33.4834 206.767 34.128Z" fill="#020F16"/>
<path d="M303.125 82.625H264.875L268.25 120.875L284 125.375L299.75 120.875L303.125 82.625Z" fill="#E65100"/>
<path d="M284 86V121.888L296.6 118.288L299.413 86H284Z" fill="#FF6D00"/>
<path d="M284 105.125V100.625H293.675L292.887 113.562L284 116.487V111.762L288.613 110.188L288.95 105.125H284ZM294.013 96.125L294.35 91.625H284V96.125H294.013Z" fill="white"/>
<path d="M284 111.762V116.487L275.112 113.562L274.662 107.375H279.162L279.387 110.188L284 111.762ZM278.487 96.125H284V91.625H273.762L274.55 105.125H284V100.625H278.825L278.487 96.125Z" fill="#EEEEEE"/>
<path d="M8.29462 168.873C8.20462 166.273 10.2307 163.875 12.9701 163.875H41.0344C43.7737 163.875 45.7999 166.273 45.7087 168.873C45.6221 171.372 45.7346 174.607 46.5491 177.247C47.3659 179.894 48.744 181.567 51.0007 181.782V184.219C48.744 184.434 47.367 186.107 46.5491 188.754C45.7346 191.392 45.6221 194.629 45.7087 197.128C45.7987 199.726 43.7726 202.125 41.0344 202.125H12.9701C10.2319 202.125 8.20462 199.726 8.29574 197.127C8.38237 194.628 8.26987 191.393 7.45537 188.753C6.63862 186.106 5.25712 184.433 3.00037 184.218V181.781C5.25712 181.566 6.63749 179.893 7.45537 177.246C8.26874 174.608 8.38237 171.372 8.29462 168.873Z" fill="#7C4DFF"/>
<path d="M30.4571 182.397V182.365C32.5417 182.005 34.1685 180.051 34.1685 177.899C34.1685 176.378 33.5835 175.089 32.4765 174.173C31.3729 173.26 29.8248 172.777 27.9978 172.777H19.6312V193.215H28.0406C30.2254 193.215 32.04 192.682 33.2865 191.671C34.5341 190.66 35.1945 189.189 35.1945 187.416C35.1934 184.737 33.2921 182.725 30.4571 182.397ZM26.5387 181.434H22.9601V175.451H27.2171C29.5526 175.451 30.8385 176.476 30.8385 178.337C30.8396 180.334 29.3119 181.434 26.5387 181.434ZM22.9601 183.938H27.189C30.2445 183.938 31.7925 185.042 31.7925 187.219C31.7925 189.392 30.2658 190.541 27.3768 190.541H22.9601V183.938Z" fill="white"/>
<path d="M186 175.444C198.395 175.444 208.444 165.395 208.444 153C208.444 140.605 198.395 130.556 186 130.556C173.605 130.556 163.556 140.605 163.556 153C163.556 165.395 173.605 175.444 186 175.444Z" fill="white"/>
<path d="M168.001 153C168.001 160.128 172.141 166.282 178.146 169.2L169.558 145.674C168.56 147.914 168.001 150.386 168.001 153ZM198.154 152.093C198.154 149.869 196.959 148.324 196.276 147.13C195.361 145.635 194.503 144.388 194.503 142.909C194.503 141.261 196.158 139.714 197.924 139.714C198.004 139.714 198.076 139.72 198.156 139.723C194.956 136.782 190.689 135 186.001 135C179.938 135 174.579 137.999 171.318 142.593C171.574 142.676 171.663 142.637 172.005 142.637C173.883 142.637 176.802 142.412 176.802 142.412C177.769 142.347 177.888 143.775 176.913 143.892C176.913 143.892 175.941 144.01 174.857 144.063L181.529 164.063L185.467 152.25L182.538 144.096C181.57 144.044 180.649 143.925 180.649 143.925C179.68 143.862 179.792 142.378 180.76 142.444C180.76 142.444 183.739 142.669 185.504 142.669C187.388 142.669 190.301 142.444 190.301 142.444C191.269 142.38 191.386 143.808 190.418 143.925C190.418 143.925 189.439 144.043 188.357 144.096L194.984 163.907L196.783 157.915C197.699 155.575 198.154 153.64 198.154 152.093ZM186.316 154.57L180.916 170.266C182.532 170.746 184.235 171 186.001 171C188.095 171 190.106 170.635 191.982 169.98C191.937 169.9 191.886 169.819 191.849 169.732L186.316 154.57ZM201.798 144.358C201.878 144.932 201.92 145.549 201.92 146.208C201.92 148.04 201.576 150.091 200.548 152.663L195.053 168.564C200.406 165.446 204 159.64 204 153C204 149.871 203.2 146.93 201.798 144.358Z" fill="#01579B"/>
<path d="M163.5 153C163.5 165.402 173.591 175.5 185.999 175.5C198.409 175.5 208.5 165.402 208.5 153C208.5 140.598 198.409 130.5 186 130.5C173.591 130.5 163.5 140.598 163.5 153ZM165.744 153C165.744 141.836 174.828 132.751 185.999 132.751C197.17 132.751 206.256 141.836 206.256 153C206.256 164.164 197.17 173.251 186 173.251C174.831 173.251 165.744 164.164 165.744 153Z" fill="#01579B"/>
<path d="M378.375 22.375H335.625C333.14 22.375 331.125 24.3899 331.125 26.875V44.875C331.125 47.3601 333.14 49.375 335.625 49.375H357L366 53.875L363.75 49.375H378.375C380.86 49.375 382.875 47.3601 382.875 44.875V26.875C382.875 24.3899 380.86 22.375 378.375 22.375Z" fill="#A64A7B"/>
<path d="M375.498 31.375C375.545 31.375 375.647 31.3806 375.81 31.4178C376.195 31.5044 376.439 31.6405 376.733 32.1895C377.081 32.8184 377.25 33.6329 377.25 34.6814C377.25 36.2541 376.893 37.6503 376.155 38.9586C375.361 40.375 374.781 40.375 374.502 40.375C374.455 40.375 374.353 40.3694 374.19 40.3323C373.805 40.2456 373.561 40.1095 373.28 39.583C372.928 38.9373 372.75 38.0834 372.75 37.0484C372.75 35.4745 373.103 34.0896 373.833 32.8128C374.652 31.375 375.245 31.375 375.498 31.375ZM375.498 28C373.62 28 372.094 29.0474 370.9 31.1421C369.883 32.9219 369.375 34.8906 369.375 37.0484C369.375 38.6616 369.688 40.0431 370.314 41.1951C371.019 42.5148 372.056 43.3101 373.445 43.6251C373.817 43.7084 374.169 43.75 374.502 43.75C376.399 43.75 377.925 42.7026 379.1 40.6079C380.117 38.8068 380.625 36.838 380.625 34.6814C380.625 33.0479 380.312 31.6866 379.686 30.5549C378.981 29.2353 377.944 28.4399 376.555 28.1249C376.184 28.0416 375.831 28 375.498 28Z" fill="white"/>
<path d="M361.998 31.375C362.045 31.375 362.147 31.3806 362.3 31.4155C362.675 31.501 362.942 31.6484 363.233 32.1906C363.581 32.8184 363.75 33.6329 363.75 34.6814C363.75 36.2541 363.393 37.6503 362.655 38.9586C361.861 40.375 361.281 40.375 361.002 40.375C360.955 40.375 360.853 40.3694 360.69 40.3323C360.305 40.2456 360.061 40.1095 359.78 39.583C359.428 38.9373 359.25 38.0834 359.25 37.0484C359.25 35.4745 359.603 34.0896 360.333 32.8128C361.152 31.375 361.745 31.375 361.998 31.375ZM361.998 28C360.12 28 358.594 29.0474 357.401 31.1421C356.384 32.9219 355.875 34.8906 355.875 37.0484C355.875 38.6616 356.188 40.0431 356.814 41.1951C357.519 42.5148 358.556 43.3101 359.945 43.6251C360.317 43.7084 360.669 43.75 361.002 43.75C362.899 43.75 364.425 42.7026 365.6 40.6079C366.617 38.8068 367.125 36.838 367.125 34.6814C367.125 33.0479 366.812 31.6866 366.186 30.5549C365.481 29.2353 364.425 28.4399 363.055 28.1249C362.684 28.0416 362.331 28 361.998 28Z" fill="white"/>
<path d="M350.813 46C350.339 46 349.877 45.7997 349.549 45.4318C347.079 42.643 345.561 38.98 344.667 36.046C343.38 38.7685 341.643 42.2503 339.884 45.1798C339.537 45.7592 338.879 46.0708 338.207 45.9842C337.536 45.8908 336.986 45.4071 336.81 44.7546C334.321 35.6117 333.427 29.0608 333.391 28.7863C333.267 27.8638 333.915 27.0145 334.838 26.8896C335.772 26.7681 336.611 27.4127 336.735 28.3363C336.743 28.3915 337.378 33.0355 339.023 39.8102C341.518 35.0762 343.61 30.2083 343.637 30.1465C343.938 29.449 344.671 29.0338 345.415 29.1396C346.166 29.2408 346.758 29.8315 346.86 30.583C346.868 30.6415 347.47 34.8861 349.386 38.9653C350.195 30.9036 352.618 26.7715 352.741 26.5667C353.221 25.7668 354.26 25.5081 355.056 25.9873C355.856 26.4666 356.115 27.5038 355.635 28.3026C355.607 28.3521 352.5 33.7543 352.5 44.3125C352.5 45.0133 352.066 45.6422 351.411 45.8897C351.215 45.964 351.014 46 350.813 46Z" fill="white"/>
</svg>

<svg xmlns="http://www.w3.org/2000/svg" width="384" height="210" fill="none"><path fill="#e64a19" d="M357.25 172.125h-9a7.875 7.875 0 0 1 0-15.75h9z"/><path fill="#7c4dff" d="M356.125 187.875h-7.875a7.875 7.875 0 0 1 0-15.75h7.875z"/><path fill="#66bb6a" d="M348.25 203.625a7.875 7.875 0 0 1 0-15.75h7.875v7.875a7.875 7.875 0 0 1-7.875 7.875"/><path fill="#ff7043" d="M364 172.125h-7.875v-15.75H364a7.875 7.875 0 0 1 0 15.75"/><path fill="#29b6f6" d="M364 187.875a7.875 7.875 0 1 0 0-15.75 7.875 7.875 0 0 0 0 15.75"/><path fill="#0277bd" d="M46.125 8.625H7.875l3.375 38.25 15.75 4.5 15.75-4.5z"/><path fill="#039be5" d="M27 12v35.888l12.6-3.6L42.413 12z"/><path fill="#fff" d="M37.238 17.625H27v4.5h5.513l-.338 4.5H27v4.5h4.95l-.337 5.063L27 37.763v4.724l8.888-2.925.787-12.937z"/><path fill="#eee" d="M27 17.625v4.5H16.988l-.338-4.5zm-5.175 9 .225 4.5H27v-4.5zm.45 6.75h-4.5l.338 6.188L27 42.487v-4.724l-4.613-1.575z"/><path fill="#7cb342" d="M115.868 81.253c-.026-.238-.237-.344-.395-.344-.157 0-3.611-.263-3.611-.263s-2.399-2.398-2.689-2.636c-.263-.263-.765-.184-.975-.131-.026 0-.528.158-1.345.421-.816-2.346-2.214-4.481-4.718-4.481h-.237c-.688-.897-1.583-1.319-2.321-1.319-5.8 0-8.594 7.25-9.464 10.94-2.266.713-3.875 1.186-4.06 1.266-1.265.395-1.291.422-1.45 1.608-.131.897-3.427 26.388-3.427 26.388l25.65 4.798 13.92-3.005c.026-.053-4.851-33.005-4.878-33.243m-10.439-2.585c-.632.185-1.397.422-2.161.685v-.473c0-1.423-.184-2.583-.528-3.507 1.318.159 2.136 1.609 2.689 3.295m-4.297-3.005c.343.897.58 2.163.58 3.902v.263c-1.423.448-2.926.897-4.482 1.397.87-3.32 2.531-4.955 3.902-5.561m-1.688-1.634c.263 0 .528.106.738.263-1.872.87-3.849 3.058-4.666 7.487-1.239.395-2.426.738-3.559 1.107.95-3.374 3.322-8.857 7.487-8.857"/><path fill="#558b2f" d="M115.473 80.857c-.158 0-3.611-.264-3.611-.264s-2.399-2.398-2.689-2.636a.51.51 0 0 0-.343-.158l-1.925 39.701 13.92-3.005s-4.877-33.005-4.904-33.243a.72.72 0 0 0-.448-.395"/><path fill="#fff" d="m101.891 88.917-1.659 5.005s-1.504-.804-3.293-.804c-2.671 0-2.8 1.685-2.8 2.1 0 2.282 5.963 3.164 5.963 8.531 0 4.227-2.67 6.949-6.275 6.949-4.356 0-6.534-2.696-6.534-2.696l1.167-3.838s2.281 1.971 4.2 1.971c1.27 0 1.79-.985 1.79-1.711 0-2.982-4.876-3.112-4.876-8.038 0-4.123 2.957-8.116 8.947-8.116 2.228-.027 3.37.647 3.37.647"/><path fill="#03a9f4" d="M176.75 11.25a4.5 4.5 0 0 1 4.5-4.5h31.5a4.5 4.5 0 0 1 4.5 4.5v31.5a4.5 4.5 0 0 1-4.5 4.5h-31.5a4.5 4.5 0 0 1-4.5-4.5z"/><path fill="#020f16" d="M192.518 21.57h-2.252v4.99h2.219q.924 0 1.429-.605.506-.605.505-1.758 0-1.199-.516-1.906a1.66 1.66 0 0 0-1.385-.72"/><path fill="#020f16" d="M180.125 10.125v33.75h33.75v-33.75zm16.161 17.763q-1.395 1.363-3.867 1.362h-2.153v5.625h-3.23V18.879h5.449q2.373 0 3.785 1.472t1.412 3.823-1.396 3.714m10.481 6.24q-1.197.967-3.142.966-1.308 0-2.307-.51a3.9 3.9 0 0 1-1.566-1.424 3.66 3.66 0 0 1-.566-1.966h2.955q.023.812.379 1.22.358.405 1.17.406 1.252 0 1.252-1.132 0-.396-.379-.73-.378-.334-1.685-.906-1.922-.779-2.643-1.615-.72-.837-.719-2.077 0-1.561 1.126-2.576 1.126-1.017 2.982-1.016 1.955 0 3.131 1.01t1.175 2.714h-3.109q0-1.45-1.208-1.45-.494 0-.814.306-.319.308-.318.858 0 .395.352.697.351.303 1.659.863 1.902.704 2.687 1.566.786.863.785 2.235 0 1.595-1.197 2.561"/><path fill="#e65100" d="M303.125 82.625h-38.25l3.375 38.25 15.75 4.5 15.75-4.5z"/><path fill="#ff6d00" d="M284 86v35.888l12.6-3.6L299.413 86z"/><path fill="#fff" d="M284 105.125v-4.5h9.675l-.788 12.937-8.887 2.925v-4.725l4.613-1.574.337-5.063zm10.013-9 .337-4.5H284v4.5z"/><path fill="#eee" d="M284 111.762v4.725l-8.888-2.925-.45-6.187h4.5l.225 2.813zm-5.513-15.637H284v-4.5h-10.238l.788 13.5H284v-4.5h-5.175z"/><path fill="#7c4dff" d="M8.295 168.873c-.09-2.6 1.936-4.998 4.675-4.998h28.064c2.74 0 4.766 2.398 4.675 4.998-.087 2.499.026 5.734.84 8.374.817 2.647 2.195 4.32 4.452 4.535v2.437c-2.257.215-3.634 1.888-4.452 4.535-.814 2.638-.927 5.875-.84 8.374.09 2.598-1.936 4.997-4.675 4.997H12.97c-2.738 0-4.765-2.399-4.674-4.998.086-2.499-.026-5.734-.84-8.374-.817-2.647-2.199-4.32-4.456-4.535v-2.437c2.257-.215 3.637-1.888 4.455-4.535.814-2.638.927-5.874.84-8.373"/><path fill="#fff" d="M30.457 182.397v-.032c2.085-.36 3.712-2.314 3.712-4.466 0-1.521-.585-2.81-1.692-3.726-1.104-.913-2.652-1.396-4.48-1.396h-8.366v20.438h8.41c2.184 0 3.999-.533 5.245-1.544 1.248-1.011 1.908-2.482 1.908-4.255 0-2.679-1.902-4.691-4.737-5.019m-3.918-.963H22.96v-5.983h4.257c2.336 0 3.622 1.025 3.622 2.886 0 1.997-1.527 3.097-4.3 3.097m-3.579 2.504h4.229c3.055 0 4.604 1.104 4.604 3.281 0 2.173-1.527 3.322-4.416 3.322H22.96zM186 175.444c12.395 0 22.444-10.049 22.444-22.444S198.395 130.556 186 130.556 163.556 140.605 163.556 153s10.049 22.444 22.444 22.444"/><path fill="#01579b" d="M168.001 153c0 7.128 4.14 13.282 10.145 16.2l-8.588-23.526a17.9 17.9 0 0 0-1.557 7.326m30.153-.907c0-2.224-1.195-3.769-1.878-4.963-.915-1.495-1.773-2.742-1.773-4.221 0-1.648 1.655-3.195 3.421-3.195.08 0 .152.006.232.009A17.9 17.9 0 0 0 186.001 135c-6.063 0-11.422 2.999-14.683 7.593.256.083.345.044.687.044 1.878 0 4.797-.225 4.797-.225.967-.065 1.086 1.363.111 1.48 0 0-.972.118-2.056.171l6.672 20 3.938-11.813-2.929-8.154a29 29 0 0 1-1.889-.171c-.969-.063-.857-1.547.111-1.481 0 0 2.979.225 4.744.225 1.884 0 4.797-.225 4.797-.225.968-.064 1.085 1.364.117 1.481 0 0-.979.118-2.061.171l6.627 19.811 1.799-5.992c.916-2.34 1.371-4.275 1.371-5.822m-11.838 2.477-5.4 15.696c1.616.48 3.319.734 5.085.734 2.094 0 4.105-.365 5.981-1.02-.045-.08-.096-.161-.133-.248zm15.482-10.212q.121.861.122 1.85c0 1.832-.344 3.883-1.372 6.455l-5.495 15.901C200.406 165.446 204 159.64 204 153c0-3.129-.8-6.07-2.202-8.642"/><path fill="#01579b" d="M163.5 153c0 12.402 10.091 22.5 22.499 22.5 12.41 0 22.501-10.098 22.501-22.5s-10.091-22.5-22.5-22.5-22.5 10.098-22.5 22.5m2.244 0c0-11.164 9.084-20.249 20.255-20.249s20.257 9.085 20.257 20.249-9.086 20.251-20.256 20.251-20.256-9.087-20.256-20.251"/><path fill="#a64a7b" d="M378.375 22.375h-42.75a4.5 4.5 0 0 0-4.5 4.5v18a4.5 4.5 0 0 0 4.5 4.5H357l9 4.5-2.25-4.5h14.625a4.5 4.5 0 0 0 4.5-4.5v-18a4.5 4.5 0 0 0-4.5-4.5"/><path fill="#fff" d="M375.498 31.375c.047 0 .149.006.312.043.385.086.629.223.923.772.348.628.517 1.443.517 2.491 0 1.573-.357 2.97-1.095 4.278-.794 1.416-1.374 1.416-1.653 1.416-.047 0-.149-.006-.312-.043-.385-.086-.629-.223-.91-.749-.352-.646-.53-1.5-.53-2.535 0-1.574.353-2.958 1.083-4.235.819-1.438 1.412-1.438 1.665-1.438m0-3.375c-1.878 0-3.404 1.047-4.598 3.142q-1.525 2.67-1.525 5.906 0 2.42.939 4.147c.705 1.32 1.742 2.115 3.131 2.43q.558.125 1.057.125c1.897 0 3.423-1.047 4.598-3.142 1.017-1.801 1.525-3.77 1.525-5.927 0-1.633-.313-2.994-.939-4.126-.705-1.32-1.742-2.115-3.131-2.43a5 5 0 0 0-1.057-.125M361.998 31.375c.047 0 .149.006.302.04.375.086.642.233.933.776.348.627.517 1.442.517 2.49 0 1.573-.357 2.97-1.095 4.278-.794 1.416-1.374 1.416-1.653 1.416-.047 0-.149-.006-.312-.043-.385-.086-.629-.223-.91-.749-.352-.646-.53-1.5-.53-2.535 0-1.574.353-2.958 1.083-4.235.819-1.438 1.412-1.438 1.665-1.438m0-3.375c-1.878 0-3.404 1.047-4.597 3.142q-1.526 2.67-1.526 5.906 0 2.42.939 4.147c.705 1.32 1.742 2.115 3.131 2.43q.558.125 1.057.125c1.897 0 3.423-1.047 4.598-3.142 1.017-1.801 1.525-3.77 1.525-5.927 0-1.633-.313-2.994-.939-4.126-.705-1.32-1.761-2.115-3.131-2.43a5 5 0 0 0-1.057-.125M350.813 46c-.474 0-.936-.2-1.264-.568-2.47-2.789-3.988-6.452-4.882-9.386-1.287 2.723-3.024 6.204-4.783 9.134a1.686 1.686 0 0 1-3.074-.425c-2.489-9.143-3.383-15.694-3.419-15.969a1.688 1.688 0 0 1 3.344-.45c.008.056.643 4.7 2.288 11.474 2.495-4.734 4.587-9.602 4.614-9.664a1.69 1.69 0 0 1 3.223.437c.008.059.61 4.303 2.526 8.382.809-8.061 3.232-12.194 3.355-12.398a1.688 1.688 0 0 1 2.894 1.736c-.028.05-3.135 5.451-3.135 16.01A1.687 1.687 0 0 1 350.813 46"/></svg>
